third_party/noto/noto_2/emoji_u1f5d2.svg

<svg enable-background="new 0 0 128 128" version="1.1" viewBox="0 0 128 128" xmlns="http://www.w3.org/2000/svg"><path d="m106.63 124h-76.28c-1.6 0-4.55 0-8.36-3.49-3.07-2.81-6.59-5.44-6.52-8.7l82.28-97.37c4.48 0 6.51 1.31 9.35 3.01 5.37 3.22 5.55 4.85 5.55 6.67v93.87c-0.01 3.32-2.7 6.01-6.02 6.01z" fill="#B9E4EA"/><path d="M69.17,87.62v29h28.85c3.17,0,5.74-2.57,5.74-5.74V87.62H69.17z" fill="#82AEC0"/><path d="m75.11 116.62c-5.21 0 4.25-21.3 4.25-21.3s24.4-22.4 24.4-6.85-23.45 28.15-28.65 28.15z" fill="#B9E4EA"/><path d="m85.12 96.44s18.64-1.19 18.64-8.55v-67.44c0-3.32-2.35-6.01-6.01-6.01h-76.39c-3.95 0-6.01 2.69-6.01 6.01v90.16c0 3.32 2.69 6.01 6.01 6.01h52.82c11.53-2.72 10.94-20.18 10.94-20.18z" fill="#F5F5F5"/><ellipse cx="28.13" cy="20.52" rx="3.11" ry="3.47" fill="#2F7889"/><path d="m29.57 17.67c-0.43-0.9-0.72-2.02-0.72-3.24 0-2.81 1.46-5.18 3.19-5.18s3.2 2.37 3.2 5.18h4.7c0-5.75-3.54-10.43-7.89-10.43s-7.9 4.68-7.9 10.43c0 2.05 0.45 3.96 1.22 5.57 0.7 1.46 2.21 2.11 3.54 1.4 1.13-0.59 1.27-2.47 0.66-3.73z" fill="#94D1E0"/><path d="m36.59 5.91c0.02 0.06 0.6 1.56-0.22 3-0.83 1.47-2.55 1.24-2.55 1.24 0.85 0.94 1.42 2.52 1.42 4.28h4.72c0-3.52-1.35-6.63-3.37-8.52z" fill="#2F7889"/><ellipse cx="49.12" cy="20.52" rx="3.11" ry="3.47" fill="#2F7889"/><path d="m50.56 17.67c-0.43-0.9-0.72-2.02-0.72-3.24 0-2.81 1.46-5.18 3.19-5.18s3.2 2.37 3.2 5.18h4.7c0-5.75-3.54-10.43-7.9-10.43-4.35 0-7.9 4.68-7.9 10.43 0 2.05 0.45 3.96 1.22 5.57 0.7 1.46 2.21 2.11 3.54 1.4 1.14-0.59 1.28-2.47 0.67-3.73z" fill="#94D1E0"/><path d="m57.58 5.91c0.02 0.06 0.6 1.56-0.22 3-0.83 1.47-2.55 1.24-2.55 1.24 0.85 0.94 1.42 2.52 1.42 4.28h4.74c0-3.52-1.37-6.63-3.39-8.52z" fill="#2F7889"/><ellipse cx="70.11" cy="20.52" rx="3.11" ry="3.47" fill="#2F7889"/><path d="m71.55 17.67c-0.43-0.9-0.72-2.02-0.72-3.24 0-2.81 1.46-5.18 3.19-5.18s3.2 2.37 3.2 5.18h4.7c0-5.75-3.54-10.43-7.9-10.43-4.35 0-7.9 4.68-7.9 10.43 0 2.05 0.45 3.96 1.22 5.57 0.7 1.46 2.21 2.11 3.54 1.4 1.13-0.59 1.28-2.47 0.67-3.73z" fill="#94D1E0"/><path d="m78.57 5.91c0.02 0.06 0.6 1.56-0.22 3-0.83 1.47-2.55 1.24-2.55 1.24 0.85 0.94 1.42 2.52 1.42 4.28h4.75c0-3.52-1.38-6.63-3.4-8.52z" fill="#2F7889"/><ellipse cx="91.08" cy="20.52" rx="3.11" ry="3.47" fill="#2F7889"/><path d="m92.53 17.67c-0.43-0.9-0.72-2.02-0.72-3.24 0-2.81 1.46-5.18 3.19-5.18s3.2 2.37 3.2 5.18h4.7c0-5.75-3.55-10.43-7.9-10.43s-7.9 4.68-7.9 10.43c0 2.05 0.45 3.96 1.22 5.57 0.7 1.46 2.21 2.11 3.54 1.4 1.13-0.59 1.27-2.47 0.67-3.73z" fill="#94D1E0"/><path d="m99.54 5.91c0.02 0.06 0.6 1.56-0.22 3-0.83 1.47-2.55 1.24-2.55 1.24 0.85 0.94 1.42 2.52 1.42 4.28l1.61 0.11s1.6 0.13 3.16 0.73c0 0 0.54-6.05-3.42-9.36z" fill="#2F7889"/><g opacity=".9"><path d="m84.34 104.03h-68.87v-2.01h69.25c-0.09 1.09-0.38 2.01-0.38 2.01z" fill="#4FC3F7"/><path d="m101.02 92.22h-85.55v-2.01h87.67c-0.89 1.38-2.12 2.01-2.12 2.01z" fill="#4FC3F7"/><line x1="103.76" x2="15.47" y1="79.41" y2="79.41" fill="none" stroke="#4FC3F7" stroke-miterlimit="10" stroke-width="2.0063"/><line x1="103.76" x2="15.47" y1="67.59" y2="67.59" fill="none" stroke="#4FC3F7" stroke-miterlimit="10" stroke-width="2.0063"/><line x1="103.76" x2="15.47" y1="55.78" y2="55.78" fill="none" stroke="#4FC3F7" stroke-miterlimit="10" stroke-width="2.0063"/><line x1="103.76" x2="15.47" y1="43.97" y2="43.97" fill="none" stroke="#4FC3F7" stroke-miterlimit="10" stroke-width="2.0063"/><line x1="103.76" x2="15.47" y1="32.16" y2="32.16" fill="none" stroke="#4FC3F7" stroke-miterlimit="10" stroke-width="2.0063"/></g><g fill="#2F7889" opacity=".75"><polygon points="112.61 38.13 103.76 33.16 103.76 31.14 112.65 36.13"/><polygon points="112.61 49.94 103.76 44.98 103.76 42.96 112.65 47.95"/><polygon points="112.61 61.76 103.76 56.79 103.76 54.77 112.65 59.76"/><polygon points="112.61 73.57 103.76 68.6 103.76 66.58 112.65 71.58"/><polygon points="112.61 85.39 103.76 80.42 103.76 78.4 112.65 83.39"/><polygon points="112.61 97.2 103.76 92.23 103.76 90.21 112.65 95.2"/><polygon points="112.61 109.01 103.76 104.04 103.76 102.02 112.65 107.02"/></g></svg>

<?xml version="1.0" encoding="utf-8"?>
<!-- Generator: Adobe Illustrator 25.2.3, SVG Export Plug-In . SVG Version: 6.00 Build 0)  -->
<svg version="1.1" id="notepad" xmlns="http://www.w3.org/2000/svg" xmlns:xlink="http://www.w3.org/1999/xlink" x="0px" y="0px"
	 viewBox="0 0 128 128" style="enable-background:new 0 0 128 128;" xml:space="preserve">
<g>
	<path style="fill:#B9E4EA;" d="M106.63,124H30.35c-1.6,0-4.55,0-8.36-3.49c-3.07-2.81-6.59-5.44-6.52-8.7l82.28-97.37
		c4.48,0,6.51,1.31,9.35,3.01c5.37,3.22,5.55,4.85,5.55,6.67v93.87C112.64,121.31,109.95,124,106.63,124z"/>
	<path style="fill:#82AEC0;" d="M69.17,87.62v29h28.85c3.17,0,5.74-2.57,5.74-5.74V87.62H69.17z"/>
	<path style="fill:#B9E4EA;" d="M75.11,116.62c-5.21,0,4.25-21.3,4.25-21.3s24.4-22.4,24.4-6.85S80.31,116.62,75.11,116.62z"/>
	<g>
		<path style="fill:#F5F5F5;" d="M85.12,96.44c0,0,18.64-1.19,18.64-8.55V20.45c0-3.32-2.35-6.01-6.01-6.01H21.36
			c-3.95,0-6.01,2.69-6.01,6.01v90.16c0,3.32,2.69,6.01,6.01,6.01h52.82C85.71,113.9,85.12,96.44,85.12,96.44z"/>
	</g>
	<g>
		<g>
			<g>
				<ellipse style="fill:#2F7889;" cx="28.13" cy="20.52" rx="3.11" ry="3.47"/>
				<path style="fill:#94D1E0;" d="M29.57,17.67c-0.43-0.9-0.72-2.02-0.72-3.24c0-2.81,1.46-5.18,3.19-5.18
					c1.73,0,3.2,2.37,3.2,5.18h4.7C39.94,8.68,36.4,4,32.05,4c-4.35,0-7.9,4.68-7.9,10.43c0,2.05,0.45,3.96,1.22,5.57
					c0.7,1.46,2.21,2.11,3.54,1.4C30.04,20.81,30.18,18.93,29.57,17.67z"/>
				<path style="fill:#2F7889;" d="M36.59,5.91c0.02,0.06,0.6,1.56-0.22,3c-0.83,1.47-2.55,1.24-2.55,1.24v0
					c0.85,0.94,1.42,2.52,1.42,4.28h4.72C39.96,10.91,38.61,7.8,36.59,5.91z"/>
			</g>
			<g>
				<ellipse style="fill:#2F7889;" cx="49.12" cy="20.52" rx="3.11" ry="3.47"/>
				<path style="fill:#94D1E0;" d="M50.56,17.67c-0.43-0.9-0.72-2.02-0.72-3.24c0-2.81,1.46-5.18,3.19-5.18
					c1.73,0,3.2,2.37,3.2,5.18h4.7C60.93,8.68,57.39,4,53.03,4c-4.35,0-7.9,4.68-7.9,10.43c0,2.05,0.45,3.96,1.22,5.57
					c0.7,1.46,2.21,2.11,3.54,1.4C51.03,20.81,51.17,18.93,50.56,17.67z"/>
				<path style="fill:#2F7889;" d="M57.58,5.91c0.02,0.06,0.6,1.56-0.22,3c-0.83,1.47-2.55,1.24-2.55,1.24v0
					c0.85,0.94,1.42,2.52,1.42,4.28h4.74C60.97,10.91,59.6,7.8,57.58,5.91z"/>
			</g>
			<g>
				<ellipse style="fill:#2F7889;" cx="70.11" cy="20.52" rx="3.11" ry="3.47"/>
				<path style="fill:#94D1E0;" d="M71.55,17.67c-0.43-0.9-0.72-2.02-0.72-3.24c0-2.81,1.46-5.18,3.19-5.18
					c1.73,0,3.2,2.37,3.2,5.18h4.7C81.92,8.68,78.38,4,74.02,4c-4.35,0-7.9,4.68-7.9,10.43c0,2.05,0.45,3.96,1.22,5.57
					c0.7,1.46,2.21,2.11,3.54,1.4C72.01,20.81,72.16,18.93,71.55,17.67z"/>
				<path style="fill:#2F7889;" d="M78.57,5.91c0.02,0.06,0.6,1.56-0.22,3c-0.83,1.47-2.55,1.24-2.55,1.24v0
					c0.85,0.94,1.42,2.52,1.42,4.28h4.75C81.97,10.91,80.59,7.8,78.57,5.91z"/>
			</g>
			<g>
				<ellipse style="fill:#2F7889;" cx="91.08" cy="20.52" rx="3.11" ry="3.47"/>
				<path style="fill:#94D1E0;" d="M92.53,17.67c-0.43-0.9-0.72-2.02-0.72-3.24c0-2.81,1.46-5.18,3.19-5.18s3.2,2.37,3.2,5.18h4.7
					C102.9,8.68,99.35,4,95,4c-4.35,0-7.9,4.68-7.9,10.43c0,2.05,0.45,3.96,1.22,5.57c0.7,1.46,2.21,2.11,3.54,1.4
					C92.99,20.81,93.13,18.93,92.53,17.67z"/>
				<path style="fill:#2F7889;" d="M99.54,5.91c0.02,0.06,0.6,1.56-0.22,3c-0.83,1.47-2.55,1.24-2.55,1.24v0
					c0.85,0.94,1.42,2.52,1.42,4.28l1.61,0.11c0,0,1.6,0.13,3.16,0.73C102.96,15.27,103.5,9.22,99.54,5.91z"/>
			</g>
		</g>
	</g>
	<g style="opacity:0.9;">
		<g>
			<path style="fill:#4FC3F7;" d="M84.34,104.03H15.47v-2.01h69.25C84.63,103.11,84.34,104.03,84.34,104.03z"/>
		</g>
		<g>
			<path style="fill:#4FC3F7;" d="M101.02,92.22H15.47v-2.01h87.67C102.25,91.59,101.02,92.22,101.02,92.22z"/>
		</g>
		
			<line style="fill:none;stroke:#4FC3F7;stroke-width:2.0063;stroke-miterlimit:10;" x1="103.76" y1="79.41" x2="15.47" y2="79.41"/>
		
			<line style="fill:none;stroke:#4FC3F7;stroke-width:2.0063;stroke-miterlimit:10;" x1="103.76" y1="67.59" x2="15.47" y2="67.59"/>
		
			<line style="fill:none;stroke:#4FC3F7;stroke-width:2.0063;stroke-miterlimit:10;" x1="103.76" y1="55.78" x2="15.47" y2="55.78"/>
		
			<line style="fill:none;stroke:#4FC3F7;stroke-width:2.0063;stroke-miterlimit:10;" x1="103.76" y1="43.97" x2="15.47" y2="43.97"/>
		
			<line style="fill:none;stroke:#4FC3F7;stroke-width:2.0063;stroke-miterlimit:10;" x1="103.76" y1="32.16" x2="15.47" y2="32.16"/>
	</g>
	<g>
		<g style="opacity:0.75;">
			<polygon style="fill:#2F7889;" points="112.61,38.13 103.76,33.16 103.76,31.14 112.65,36.13 			"/>
		</g>
		<g style="opacity:0.75;">
			<polygon style="fill:#2F7889;" points="112.61,49.94 103.76,44.98 103.76,42.96 112.65,47.95 			"/>
		</g>
		<g style="opacity:0.75;">
			<polygon style="fill:#2F7889;" points="112.61,61.76 103.76,56.79 103.76,54.77 112.65,59.76 			"/>
		</g>
		<g style="opacity:0.75;">
			<polygon style="fill:#2F7889;" points="112.61,73.57 103.76,68.6 103.76,66.58 112.65,71.58 			"/>
		</g>
		<g style="opacity:0.75;">
			<polygon style="fill:#2F7889;" points="112.61,85.39 103.76,80.42 103.76,78.4 112.65,83.39 			"/>
		</g>
		<g style="opacity:0.75;">
			<polygon style="fill:#2F7889;" points="112.61,97.2 103.76,92.23 103.76,90.21 112.65,95.2 			"/>
		</g>
		<g style="opacity:0.75;">
			<polygon style="fill:#2F7889;" points="112.61,109.01 103.76,104.04 103.76,102.02 112.65,107.02 			"/>
		</g>
	</g>
</g>
</svg>
